static/images/cs-feature-blue-line.svg

<svg width="4" height="100" viewBox="0 0 4 100" fill="none" xmlns="http://www.w3.org/2000/svg">
<path d="M3.97966 0.952505C4.03177 1.51288 3.97605 2.24743 3.89958 2.80569C3.87587 2.98065 3.76985 2.89205 3.7487 3.01283C3.70748 3.24904 3.75948 3.4691 3.71037 3.70253C3.69358 3.77988 3.52565 3.68359 3.51189 3.76471C3.43767 4.20921 3.48045 4.62973 3.44475 5.08002C3.26863 7.29799 3.20559 9.47821 3.12908 11.7233C3.10399 12.4636 2.95159 13.3635 3.01824 14.1281C3.02617 14.2174 3.17357 14.1642 3.18572 14.1811C3.3717 14.4475 3.07413 14.3589 3.0346 14.5329C2.87849 15.2231 2.86492 15.9907 2.9218 16.655C2.94644 16.9376 3.23921 16.6542 3.07488 16.9388C3.06378 16.9585 2.90725 16.8868 2.89055 16.9643C2.853 17.1401 2.88098 17.4736 2.86858 17.6098C2.84389 17.8723 2.84546 17.9158 2.84368 18.1641C2.83988 18.5035 2.76207 18.9073 2.79754 19.2715C2.80557 19.3492 2.96603 19.2463 2.99334 19.3703C3.0206 19.4944 3.00699 19.8227 2.96917 19.9333C2.93132 20.044 2.8052 19.9969 2.7763 20.0165C2.5323 20.1777 2.87023 20.5574 2.87859 20.6062C3.02099 21.4971 2.82848 22.261 2.82903 23.0972C2.82986 23.7321 2.89341 24.4109 2.88469 25.0149C2.87369 25.7345 2.78674 26.3444 2.80169 27.0436C2.80308 27.1173 2.99174 27.0309 2.99382 27.121C3.01578 28.0784 2.99521 29.0291 2.86785 29.9824C2.85491 30.078 2.68926 29.9548 2.66643 30.0503C2.5303 30.6351 2.20329 31.5604 2.92449 31.9077C2.89633 32.3038 2.86723 32.7847 2.72185 33.1391C2.62829 33.3676 2.44783 33.1456 2.52483 33.4263C2.54199 33.4896 2.70002 33.4073 2.7138 33.5022C2.77165 33.9019 2.72028 34.3386 2.80193 34.734C2.81891 34.8144 2.96051 34.7925 2.98601 34.8153C3.19252 35.0068 2.85115 35.3256 2.82635 35.3951C2.64137 35.9243 2.71416 36.3108 2.70965 36.8039C2.70852 36.9183 2.89872 36.783 2.90447 36.8931C2.93173 37.4641 2.91538 38.0556 2.83098 38.6147C2.81175 38.7391 2.64973 38.6247 2.63225 38.6841C2.55715 38.9462 2.86317 39.0043 2.79705 39.2556C2.7835 39.3086 2.6448 39.2787 2.62957 39.2884C2.39045 39.4396 2.72927 39.5711 2.73675 39.61C2.83896 40.1021 2.48525 40.4167 2.53533 40.8921C2.54168 40.949 2.71718 40.8207 2.7243 40.9806C2.77274 42.0457 2.72453 43.1722 2.58416 44.2265C2.56257 44.3905 2.43073 44.2734 2.41448 44.2837C2.16055 44.4519 2.50079 44.5606 2.5136 44.6141C2.60584 45.0358 2.32051 45.4297 2.72576 45.7162C2.58512 47.502 2.8127 49.2796 2.44964 51.0506C2.44543 51.0732 2.27786 51.0328 2.2702 51.0777C2.17611 51.6187 2.43654 51.5148 2.75506 51.8727C2.83504 51.9629 2.45048 52.2372 2.42229 52.2614C2.31842 52.3498 2.06912 52.2581 2.049 52.2878C1.89104 52.5328 2.71548 52.4928 2.71575 52.8233C2.71438 52.8337 2.56263 52.7903 2.54754 52.818C2.50017 52.9042 2.56047 52.9896 2.50823 53.074C2.38736 53.267 1.98675 53.3357 2.2199 53.6305C2.25016 53.6678 2.71782 53.6109 2.69573 53.906C2.68653 54.0236 2.69454 54.5443 2.66424 54.6903C2.63397 54.836 2.48326 54.7359 2.47674 54.7463C2.27746 55.1391 2.19487 54.9902 1.89984 55.1869C1.60592 55.3837 2.30694 55.3291 2.38519 55.4093C2.46321 55.4897 2.29879 55.7776 2.24163 55.8484C2.18445 55.9191 2.08869 55.8309 2.05633 55.8938C1.84491 56.3108 2.40429 56.0768 2.51556 56.2142C2.77901 56.5382 2.25913 56.7905 2.20818 57.087C2.19443 57.1673 2.31283 57.1018 2.32391 57.1732C2.36619 57.4562 2.20398 57.6264 2.35271 57.9484C2.37695 58.0011 2.68952 58.2613 2.46014 58.4298C2.42706 58.4537 2.29751 58.3859 2.26849 58.5065C2.22493 58.6866 2.19662 59.0113 2.23992 59.205C2.27196 59.3479 2.48544 59.1841 2.41912 59.364C2.38951 59.444 2.26463 59.2958 2.21941 59.446C2.17422 59.5955 2.1797 59.9777 2.18401 60.1232C2.18842 60.2683 2.35035 60.1889 2.36126 60.2006C2.42375 60.2716 2.50183 60.5502 2.50164 60.5748C2.52141 61.8167 2.24846 62.9618 2.3388 64.1709C2.34565 64.2658 2.51641 64.2026 2.51922 64.2171C2.59076 64.5419 2.13676 64.2858 1.9848 64.5127C2.33131 64.4799 2.26857 64.6139 2.30657 64.8427C2.32517 64.953 2.45934 64.8929 2.47308 64.903C2.67687 65.0665 2.41364 65.1804 2.3598 65.2097C2.16171 65.318 2.39576 65.4358 2.26336 65.5095C2.13195 65.5832 1.93714 65.4137 1.93963 65.6331C2.06367 65.6947 2.38783 65.5317 2.44036 65.6983C2.63908 66.327 2.38475 67.5004 2.35833 68.0059C2.33193 68.5103 2.35482 68.6732 2.30999 68.9672C2.22894 69.4981 2.46944 69.3035 2.57952 69.6332C2.68959 69.9639 2.09785 69.8031 1.97064 69.8507C1.84348 69.8973 1.97437 69.9483 1.90447 70.0063C1.83459 70.0642 1.7481 69.9389 1.72186 70.075C1.69564 70.2111 1.92185 70.5833 2.05486 70.6315C2.33666 70.7335 2.63242 70.5658 2.5285 70.926C2.52233 70.9467 2.36673 70.8795 2.35101 70.9588C2.23122 71.5889 2.2238 72.2434 2.11785 72.8727C2.10304 72.9592 1.92995 72.8818 1.91937 72.9322C1.80865 73.4567 2.10051 73.2692 2.42474 73.5566C1.99327 73.4921 1.72929 73.6511 1.72674 74.0491C1.72506 74.2884 1.9135 74.2472 2.04632 74.402C2.08636 74.4484 1.95696 74.6177 2.04559 74.6484C2.33528 74.7496 2.65958 74.5901 2.53045 75.0005C2.52431 75.0185 2.36574 74.9612 2.35613 75.0234C2.29327 75.4256 2.59629 75.4737 2.63299 75.9084C2.66178 76.2492 2.47701 76.8552 2.44695 77.2432C1.96185 77.235 2.07294 77.6015 2.4074 77.7502C2.39371 78.0019 2.41262 78.2739 2.36639 78.5173C2.35063 78.601 2.21018 78.546 2.195 78.5566C1.95694 78.7185 2.28234 78.828 2.2951 78.8824C2.41911 79.4714 2.17248 79.9514 2.41351 80.5135C2.42219 80.5335 2.75915 80.5658 2.51312 80.7161C2.49616 80.7258 2.34284 80.5401 2.33099 80.8046C2.31911 81.0691 2.13847 81.5677 2.29461 81.9349C2.3322 82.0237 2.60575 82.2485 2.39202 82.4289C2.363 82.4529 2.26636 82.4266 2.21258 82.4613C2.04122 82.5735 2.38181 82.6347 2.09246 82.7665C1.80313 82.8983 1.58644 83.1725 1.78607 83.5428C1.79187 83.5546 2.06182 83.6422 2.05755 83.7587C2.05051 83.9446 1.99427 84.2085 1.99603 84.4026C1.99697 84.4956 2.16459 84.4361 2.16766 84.4522C2.26159 85.0771 2.11215 85.5219 2.0473 86.1913C2.03508 86.314 2.26366 86.6667 2.08294 86.9043C1.88511 87.1652 1.06218 86.8971 1.25824 87.4967C1.33666 87.7386 2.3807 88.0448 1.83978 88.4794C1.97381 89.3223 1.69697 90.1018 1.88836 90.9471C1.89684 90.9851 2.18823 91.1053 2.18426 91.1947C2.17781 91.3274 2.04162 91.4002 2.03265 91.4949C1.99163 91.8918 2.10815 92.2551 2.09002 92.6378C2.08344 92.7831 1.94262 92.7323 1.93475 92.9056C1.92701 93.0788 2.11244 93.1943 2.02288 93.429C1.95462 93.6062 1.57561 93.7834 1.53143 94.0187C1.90528 94.0277 1.89758 94.1893 1.99627 94.4765C2.01542 94.5317 2.14554 94.4725 2.16131 94.4986C2.22838 94.6049 2.12053 94.7033 2.19354 94.8042C2.21107 94.8287 2.33874 94.8299 2.36028 94.8499C2.54831 95.0206 2.26112 95.3018 2.21112 95.3501C2.02121 95.5351 2.18727 95.6216 2.11248 95.7636C2.03771 95.9053 1.94424 95.6934 1.89886 95.8589C1.80501 96.2021 1.82563 96.643 1.81976 96.9915C1.81821 97.1306 1.98863 97.0357 1.99237 97.0556C2.03559 97.3431 1.85431 97.6339 2.19378 97.7934C1.31603 97.9927 2.27892 97.9668 2.10321 98.3778C2.08899 98.4102 1.67391 98.4514 1.61297 98.327C1.55209 98.2028 1.68184 98.0143 1.58685 97.8418C1.56456 97.801 1.1756 97.567 1.15204 97.5351C0.967897 97.2851 1.58818 97.2497 1.62225 97.2364C1.98991 97.0864 1.57088 96.8005 1.54193 96.7253C1.40926 96.3809 1.49649 96.0882 1.40179 95.8002C1.34059 95.6118 0.934278 95.5934 0.946715 95.4454C0.987822 94.9536 1.55463 94.782 1.06317 94.3186C0.958352 94.2192 0.514267 94.3179 0.863463 93.9619C0.885477 93.9395 1.20493 93.6752 1.00287 93.5224C0.97739 93.5033 0.847969 93.5038 0.837096 93.4786C0.76677 93.309 0.869876 93.1959 0.820495 93.0113C0.771113 92.8266 0.697497 92.6045 0.741393 92.3937C0.767642 92.2666 1.00877 92.1035 1.06781 92.0427C1.23787 91.8709 0.959039 91.6868 1.16498 91.5804C1.37195 91.4731 1.68627 91.6828 1.82 91.4015C1.48376 91.391 1.13863 91.3671 0.800475 91.3503C0.812314 90.7337 0.921043 90.1269 0.906188 89.5082C0.90401 89.4315 0.723242 89.51 0.716247 89.4277C0.687529 89.0808 0.816393 88.7778 0.765075 88.418C0.72466 88.1395 0.533265 87.8341 0.485046 87.5429C0.869809 87.365 0.739191 86.9329 0.774352 86.619C0.786501 86.509 0.889264 86.5163 0.922789 86.4381C1.04678 86.1431 0.706767 86.2814 0.653259 86.2005C0.424892 85.8535 1.19449 85.8238 1.17547 85.4147C1.17473 85.393 0.764498 85.128 0.738952 85.0915C0.57237 84.8597 0.881737 85.0532 0.912047 84.9081C0.967438 84.6431 1.06541 84.459 0.94525 84.1482C0.90966 84.0575 0.653969 83.8401 0.851744 83.6641C0.877642 83.6409 1.01324 83.6537 1.02118 83.6351C1.15354 83.2977 0.727486 83.2889 0.58319 83.0961C0.438926 82.9033 0.733041 82.6054 0.817809 82.5449C1.0371 82.3863 0.911524 82.6663 0.933043 82.6749C1.18914 82.7758 1.14505 82.5586 1.16668 82.3926C1.58444 82.3686 1.55936 82.1365 1.18744 82.2206C1.14681 82.2302 1.18577 82.3593 1.16668 82.3926C0.756809 82.247 0.704316 81.9919 1.08734 81.7102C1.26686 81.5783 1.47616 81.703 1.39959 81.3024C1.36503 81.1206 1.07738 81.1909 0.99896 81.0304C0.820032 80.6639 1.08836 80.1876 1.04608 79.8097C1.03073 79.6726 0.873275 79.8062 0.857359 79.7124C0.81463 79.4637 0.932771 79.2443 0.872252 78.9945C0.866569 78.9719 0.701745 79.0272 0.699645 78.9495C0.680503 78.3606 0.786074 77.8478 0.789 77.2329C0.790339 76.9358 0.699435 76.4046 0.717711 76.0969C0.748414 75.5634 0.988093 74.9072 0.929869 74.4516C0.892598 74.1544 0.727741 74.2196 0.615416 74.0922C0.397686 73.8465 0.787691 73.4115 0.848082 73.3529C0.85008 73.3512 0.888944 73.6069 0.97357 73.4704C1.1499 73.3911 0.848846 73.3558 0.848082 73.3529C0.887094 73.3145 0.924518 72.8036 0.893003 72.7021C0.875782 72.647 0.719588 72.6779 0.713561 72.6491C0.573783 71.966 0.534084 71.2817 0.607116 70.5888C0.610271 70.5766 0.784983 70.595 0.79022 70.5663C0.867901 70.1652 0.654175 69.9083 0.527282 69.5775C0.400445 69.2468 0.442927 68.9845 0.742857 68.7886C0.705094 68.5391 0.837692 68.181 0.91815 67.975C0.998606 67.7689 0.658516 67.7402 0.651793 67.7221C0.436602 67.1566 0.631263 66.8297 0.661559 66.2431C0.676545 65.9642 0.627215 65.4109 0.590026 65.109C0.560066 64.8703 0.639767 64.7265 0.588805 64.5066C0.581999 64.4769 0.430573 64.5069 0.424743 64.4979C0.243571 64.2524 0.613755 64.3704 0.679869 64.3197C0.920294 64.136 1.04834 64.0225 0.935239 63.7082C0.909338 63.6357 0.376325 63.4246 0.345153 63.2924C0.305603 63.1206 0.496656 63.1855 0.450377 63.0056C0.446592 62.9902 0.328726 62.9934 0.333923 62.8823C0.356496 62.367 0.42508 61.8051 0.413268 61.2695C0.412107 61.1963 0.225153 61.2901 0.220398 61.1844C0.198237 60.6884 0.205156 60.1448 0.292663 59.6616C0.31479 59.5426 0.44569 59.6172 0.484557 59.5914C0.719726 59.4329 0.378031 59.2081 0.37152 59.171C0.207317 58.2863 0.516548 57.6092 0.369323 56.7075C0.36068 56.6584 -0.00562529 56.2805 0.308532 56.112C0.329433 56.1005 0.650848 55.9337 0.43109 55.7862C0.417342 55.7771 0.251872 55.881 0.268737 55.6996C0.285565 55.5183 0.175066 55.2264 0.356872 54.9771C0.414143 54.8982 0.734765 54.7117 0.479186 54.4763C0.461344 54.4609 -0.116558 54.0975 0.282165 53.9678C0.347798 53.9467 0.769739 53.9687 0.553404 53.6878C0.511464 53.6341 0.417349 53.7315 0.35858 53.5901C0.268006 53.3734 0.381015 53.0863 0.193054 52.8199C0.159778 52.7734 -0.12661 52.5757 0.090759 52.4171C0.124803 52.3922 0.265668 52.4394 0.281432 52.3557C0.357051 51.9573 0.262826 51.5402 0.360289 51.1357C0.394536 50.9925 0.62226 51.0657 0.683286 50.9164C0.744291 50.767 0.802976 50.4661 0.698911 50.3098C0.594801 50.1535 0.231862 50.3243 0.202819 50.0901C0.0766839 49.0721 0.289594 48.0636 0.320738 47.0471C0.32539 46.8963 0.195519 47.0213 0.193053 46.7992C0.183391 45.98 0.0616235 44.5658 0.337584 43.855C0.558613 43.2855 0.726886 44.0022 0.816831 43.567C0.859737 43.357 0.437782 43.1297 0.424498 43.0791C0.289558 42.5838 0.476474 42.2396 0.419127 41.7939C0.407226 41.7018 0.236204 41.7921 0.227965 41.7138C0.198306 41.4462 0.274643 41.165 0.26068 40.9093C0.254022 40.7945 0.123401 40.8157 0.133483 40.7101C0.156101 40.4576 0.211008 40.2342 0.333433 39.988C0.344589 39.9656 0.507077 40.1169 0.51312 39.93C0.52244 39.6276 0.643212 39.2522 0.518491 38.9042C0.480973 38.801 0.182442 38.797 0.388609 38.575C0.431669 38.5285 0.79014 38.5879 0.480406 38.3294C0.428935 38.2859 0.0111604 37.8516 0.280455 37.6385C0.35133 37.5823 0.644669 37.4388 0.598569 37.3147C0.591213 37.2978 0.430861 37.3653 0.41522 37.2624C0.362887 36.8998 0.379995 36.5198 0.329771 36.1474C0.316042 36.0479 0.15011 36.196 0.134948 36.0478C0.0930068 35.6401 0.135256 35.1311 0.187193 34.7325C0.206657 34.5855 0.34411 34.6871 0.359068 34.6764C0.602368 34.5044 0.273969 34.4027 0.25482 34.3457C0.14016 33.9907 0.294422 33.7204 0.253599 33.3931C0.24275 33.3028 0.0861658 33.3669 0.0722035 33.3489C-0.0642175 33.1625 0.216987 33.3013 0.247984 33.1833C0.335753 32.8527 0.323169 32.4842 0.30316 32.1499C0.29558 32.0271 0.114017 32.1651 0.109313 32.0549C0.0780263 31.4027 0.0953998 30.7246 0.195494 30.0881C0.21467 29.9682 0.354479 30.0436 0.386411 30.0187C0.609821 29.8465 0.305088 29.5942 0.27606 29.5361C0.143519 29.2721 0.267155 29.1696 0.244078 28.9364C0.129181 27.7975 0.211067 26.3913 0.261656 25.3163C0.326763 23.9154 0.459766 22.8283 0.425229 21.4924C0.423209 21.4075 0.23722 21.4931 0.233091 21.4199C0.188255 20.475 0.260932 19.5447 0.207212 18.5978C0.203134 18.5201 0.0268148 18.6321 0.0143417 18.5074C-0.0124786 18.2516 -0.00289517 17.9276 0.0534041 17.6689C0.0805303 17.5428 0.231828 17.712 0.25604 17.585C0.312764 17.2893 0.325322 16.9724 0.297056 16.6687C0.284643 16.5395 0.104313 16.7345 0.102232 16.5665C0.0843418 15.4222 0.0532845 14.2984 0.286802 13.142C0.302839 13.0627 0.66934 12.9932 0.599056 12.8246C0.497343 12.8119 0.377696 12.8126 0.268979 12.8071C0.210416 11.1413 0.33747 9.4925 0.357114 7.82203C0.3579 7.7516 0.16371 7.87331 0.164243 7.73696C0.167114 6.94776 0.113318 6.18139 0.306332 5.37413C0.325209 5.29403 0.666837 5.33513 0.615169 5.09909C0.605741 5.05746 0.56018 4.70196 0.486019 4.61004C0.474833 4.59756 0.315374 4.66242 0.310727 4.54786C0.286512 3.88215 0.322916 3.18453 0.420346 2.51997C0.436375 2.41271 0.606185 2.52693 0.619075 2.45054C0.709218 1.90866 0.580131 1.31924 0.734309 0.801443C0.838122 0.454848 1.13165 0.583168 1.42059 0.398992C1.46135 0.372942 1.46781 0.15832 1.63592 0.147221C2.05864 0.118727 2.52152 0.222683 2.9721 0.180028C3.06915 0.171016 2.96462 -0.116419 3.19915 0.0537608C3.21484 0.0656496 3.29268 0.274041 3.37224 0.325368C3.42725 0.361103 3.59821 0.296707 3.66863 0.369618C3.73897 0.442524 3.59566 0.522638 3.67839 0.643514C3.76215 0.764337 3.95664 0.71121 3.97966 0.952505ZM1.27777 67.0472C1.44109 66.8564 0.842902 66.8283 0.98602 67.0346C0.993648 67.0446 1.26976 67.0571 1.27777 67.0472ZM1.37225 90.1304C1.63609 89.881 1.24814 89.7103 1.04437 89.8863C0.840822 90.0622 1.29227 90.2064 1.37225 90.1304ZM1.56488 92.7168C1.77291 92.4253 0.924649 92.3794 1.09613 92.6916C1.10582 92.7097 1.5528 92.7338 1.56488 92.7168ZM1.50286 1.2531C1.51081 1.25047 1.51855 1.09619 1.51067 1.09251C1.32069 1.01035 1.30534 1.31885 1.50286 1.2531ZM1.77459 95.2833C1.88934 95.1923 1.75688 94.9303 1.61419 95.0434C1.49941 95.1344 1.63186 95.3966 1.77459 95.2833ZM1.91619 57.095C1.92511 57.092 1.93313 56.9814 1.88275 56.9837C1.72046 56.9912 1.76626 57.1451 1.91619 57.095ZM1.78436 99.6454C1.81629 99.0009 2.51699 98.6102 2.43792 99.312C2.42362 99.4391 2.21447 99.0381 2.1513 99.1999C2.03621 99.4959 2.47617 99.6924 2.24041 99.9945C2.19726 100.049 1.78098 99.6822 1.78338 99.6443C1.78371 99.6447 1.78403 99.645 1.78436 99.6454ZM1.99627 66.9374C2.00418 66.9335 2.01168 66.7804 2.00384 66.7768C1.81393 66.6938 1.79871 67.0023 1.99627 66.9374ZM2.28606 50.6409C2.30292 50.6325 2.31868 50.2772 2.30315 50.2656C1.9926 50.0802 1.95981 50.7986 2.28606 50.6409ZM2.43401 77.2493C2.62506 77.4164 2.64756 77.6162 2.40765 77.7494C2.42038 77.5834 2.42226 77.4162 2.43401 77.2493Z" fill="#0BA6E2"/>
</svg>

<svg xmlns="http://www.w3.org/2000/svg" width="4" height="100" fill="none" viewBox="0 0 4 100"><path fill="#0ba6e2" d="M3.98.953c.052.56-.004 1.294-.08 1.853-.024.175-.13.086-.151.207-.042.236.01.456-.039.69-.016.077-.184-.02-.198.062-.074.444-.032.865-.067 1.315-.176 2.218-.24 4.398-.316 6.643-.025.74-.177 1.64-.11 2.405.007.09.155.036.167.053.186.267-.112.178-.151.352-.157.69-.17 1.458-.113 2.122.024.283.317 0 .153.284-.011.02-.168-.052-.184.025-.038.176-.01.51-.022.646-.025.262-.024.306-.025.554-.004.34-.082.743-.046 1.107.008.078.168-.025.195.1.028.123.014.452-.024.562s-.164.064-.193.084c-.244.16.094.54.103.59.142.89-.05 1.654-.05 2.49 0 .635.064 1.314.056 1.918-.011.72-.098 1.33-.083 2.029.001.073.19-.013.192.077.022.957.001 1.908-.126 2.861-.013.096-.179-.027-.202.068-.136.585-.463 1.51.258 1.858-.028.396-.057.877-.202 1.231-.094.229-.274.007-.197.287.017.064.175-.019.189.076.058.4.006.837.088 1.232.017.08.159.058.184.081.207.192-.135.51-.16.58-.185.53-.112.916-.116 1.409-.001.114.189-.021.194.09.028.57.011 1.162-.073 1.72-.02.125-.181.01-.199.07-.075.262.231.32.165.572-.014.053-.152.023-.167.032-.24.152.1.283.107.322.102.492-.252.807-.202 1.282.007.057.182-.071.19.089.048 1.065 0 2.191-.14 3.246-.022.164-.154.046-.17.057-.254.168.086.277.099.33.092.422-.193.816.212 1.102-.14 1.786.087 3.564-.276 5.335-.005.022-.172-.018-.18.027-.094.54.167.437.485.795.08.09-.305.364-.333.388-.104.089-.353-.003-.373.027-.158.245.666.205.667.535-.002.01-.153-.033-.168-.005-.048.086.012.172-.04.256-.12.193-.521.262-.288.556.03.038.498-.02.476.276-.01.118-.001.638-.032.784-.03.146-.18.046-.187.056-.2.393-.282.244-.577.44-.294.198.407.143.485.223s-.086.369-.143.44c-.058.07-.153-.018-.186.045-.211.417.348.183.46.32.263.324-.257.577-.308.873-.014.08.105.015.116.086.042.283-.12.453.029.775.024.053.337.313.107.482-.033.024-.162-.044-.192.077-.043.18-.071.504-.028.698.032.143.245-.02.18.159-.03.08-.155-.068-.2.082s-.04.532-.036.677.166.066.177.078c.063.07.14.35.14.374.02 1.242-.253 2.387-.162 3.596.007.095.177.032.18.046.072.325-.382.069-.534.296.346-.033.284.1.322.33.018.11.152.05.166.06.204.163-.06.277-.113.307-.198.108.036.226-.097.3-.131.073-.326-.096-.323.123.124.062.448-.101.5.065.2.629-.055 1.802-.082 2.308-.026.504-.003.667-.048.961-.081.531.16.337.27.666.11.33-.482.17-.61.218-.127.046.004.097-.066.155s-.156-.067-.182.069.2.508.333.556c.282.103.577-.065.474.295-.007.02-.162-.047-.178.033-.12.63-.127 1.284-.233 1.914-.015.086-.188.009-.199.06-.11.524.182.336.506.624-.432-.065-.696.094-.698.492-.002.24.186.198.32.353.04.046-.09.216-.001.246.29.102.614-.058.484.353-.006.017-.164-.04-.174.022-.063.403.24.45.277.885.029.341-.156.947-.186 1.335-.485-.008-.374.359-.04.507-.013.252.006.524-.04.767-.016.084-.157.029-.172.04-.238.162.087.271.1.325.124.59-.123 1.07.119 1.631.008.02.345.053.1.203-.018.01-.171-.176-.183.089-.012.264-.193.763-.036 1.13.037.089.31.314.097.494-.029.024-.126-.002-.18.032-.17.112.17.174-.12.305-.289.132-.506.406-.306.777.006.012.276.1.272.216-.007.186-.064.45-.062.644.001.093.169.033.172.05.094.624-.056 1.069-.12 1.738-.013.123.216.476.035.713-.198.261-1.02-.007-.825.593.079.242 1.123.548.582.982.134.843-.143 1.623.048 2.468.009.038.3.158.296.248-.006.132-.142.205-.151.3-.041.397.075.76.057 1.143-.007.145-.147.094-.155.268-.008.173.177.288.088.523-.068.177-.447.354-.492.59.374.009.367.17.465.457.02.056.15-.004.165.023.067.106-.04.204.033.305.017.025.145.026.166.046.188.17-.099.452-.149.5-.19.185-.024.272-.099.414-.074.141-.168-.07-.213.095-.094.343-.073.784-.08 1.133 0 .139.17.044.173.064.044.287-.138.578.202.737-.878.2.085.174-.09.585-.015.032-.43.073-.491-.051-.06-.124.069-.313-.026-.485-.022-.041-.411-.275-.435-.307-.184-.25.436-.285.47-.299.368-.15-.051-.436-.08-.51-.133-.345-.046-.638-.14-.926-.061-.188-.468-.207-.455-.355.04-.491.608-.663.116-1.126-.105-.1-.549-.001-.2-.357.022-.023.342-.287.14-.44-.026-.019-.155-.018-.166-.043-.07-.17.033-.283-.017-.468-.049-.184-.123-.406-.079-.617.027-.127.268-.29.327-.351.17-.172-.109-.356.097-.463s.521.103.655-.178c-.336-.011-.681-.035-1.02-.052.012-.616.121-1.223.106-1.842-.002-.076-.183.002-.19-.08-.028-.347.1-.65.05-1.01-.041-.279-.233-.584-.281-.875.385-.178.254-.61.29-.924.012-.11.114-.103.148-.18.124-.296-.216-.158-.27-.238-.228-.347.541-.377.522-.786 0-.022-.41-.287-.436-.324-.167-.231.143-.038.173-.183.055-.265.153-.449.033-.76-.035-.09-.291-.308-.093-.484.026-.023.161-.01.17-.029.132-.337-.295-.346-.439-.539s.15-.49.235-.551c.22-.159.094.121.115.13.256.1.212-.116.234-.282.417-.024.392-.257.02-.172-.04.01-.001.138-.02.172-.41-.146-.463-.401-.08-.683.18-.132.39-.007.313-.408-.035-.181-.323-.111-.401-.272-.179-.366.09-.842.047-1.22-.015-.137-.173-.004-.189-.098-.042-.248.076-.468.015-.718-.005-.022-.17.033-.172-.044-.02-.59.086-1.102.089-1.717.001-.297-.09-.828-.071-1.136.03-.534.27-1.19.212-1.645-.037-.298-.202-.232-.315-.36-.217-.245.173-.68.233-.74.002 0 .04.255.126.118.176-.079-.125-.114-.126-.117.04-.038.077-.55.045-.65-.017-.056-.173-.025-.18-.054a6.7 6.7 0 0 1-.106-2.06c.003-.012.178.006.183-.023.078-.4-.136-.658-.263-.989s-.084-.593.216-.788c-.038-.25.095-.608.175-.814s-.26-.235-.266-.253c-.215-.565-.02-.892.01-1.479.015-.279-.035-.832-.072-1.134-.03-.239.05-.382-.001-.602-.007-.03-.158 0-.164-.01-.181-.245.189-.127.255-.177.24-.184.368-.297.255-.612-.026-.072-.559-.283-.59-.416-.04-.171.152-.107.105-.286-.003-.016-.121-.013-.116-.124.022-.515.091-1.077.08-1.612-.002-.074-.189.02-.194-.086-.022-.496-.015-1.04.073-1.522.022-.12.153-.045.192-.07.235-.16-.107-.384-.113-.421-.165-.885.145-1.562-.003-2.463-.008-.05-.375-.427-.06-.596.02-.012.342-.178.122-.326-.014-.009-.18.095-.162-.086.017-.182-.094-.474.088-.723.057-.079.378-.265.122-.5-.018-.016-.596-.38-.197-.51.066-.02.488.002.271-.28-.042-.053-.136.044-.194-.097-.091-.217.022-.504-.166-.77-.033-.047-.32-.244-.102-.403.034-.025.175.022.19-.061.076-.399-.018-.816.08-1.22.034-.144.261-.07.322-.22.061-.149.12-.45.016-.606-.104-.157-.467.014-.496-.22-.126-1.018.087-2.026.118-3.043.004-.15-.125-.026-.128-.248-.01-.819-.131-2.233.145-2.944.22-.57.389.147.479-.288.043-.21-.38-.437-.393-.488-.134-.495.052-.84-.005-1.285-.012-.092-.183-.002-.191-.08-.03-.268.047-.549.033-.805-.007-.114-.138-.093-.128-.199a1.9 1.9 0 0 1 .2-.722c.012-.022.174.129.18-.058.01-.302.13-.678.005-1.026-.037-.103-.336-.107-.13-.329.044-.047.402.013.092-.246-.051-.043-.469-.477-.2-.69.071-.057.365-.2.319-.324-.008-.017-.168.05-.184-.053C.363 36.9.38 36.52.33 36.147c-.014-.1-.18.049-.195-.1-.042-.407 0-.916.052-1.314.02-.147.157-.046.172-.057.243-.172-.085-.273-.104-.33-.115-.355.04-.626-.001-.953-.011-.09-.168-.026-.182-.044-.136-.186.145-.048.176-.166.088-.33.075-.699.055-1.033-.007-.123-.189.015-.194-.095a10 10 0 0 1 .086-1.967c.02-.12.16-.044.191-.07.224-.172-.08-.424-.11-.482-.132-.264-.009-.366-.032-.6-.115-1.139-.033-2.545.018-3.62.065-1.4.198-2.488.163-3.824-.002-.085-.188.001-.192-.072-.045-.945.028-1.875-.026-2.822-.004-.078-.18.034-.193-.09a2.9 2.9 0 0 1 .04-.84c.027-.125.178.044.202-.083.057-.296.07-.613.041-.916-.012-.13-.193.066-.195-.102-.018-1.145-.049-2.269.185-3.425.016-.08.382-.149.312-.317-.102-.013-.221-.012-.33-.018-.059-1.666.068-3.315.088-4.985 0-.07-.193.051-.193-.085.003-.79-.05-1.556.142-2.363.02-.08.36-.039.31-.275-.01-.042-.056-.397-.13-.489-.011-.012-.17.052-.175-.062-.024-.666.012-1.363.11-2.028.015-.107.185.007.198-.07C.71 1.91.58 1.32.734.802.838.455 1.132.583 1.421.4c.04-.026.047-.24.215-.252.423-.028.886.076 1.336.033.097-.009-.007-.296.227-.126.016.012.094.22.173.271.055.036.226-.028.297.045s-.073.153.01.274c.083.12.278.067.3.309M1.278 67.047c.163-.19-.435-.219-.292-.012.008.01.284.022.292.012m.094 23.083c.264-.249-.124-.42-.328-.244-.203.176.248.32.328.244m.193 2.587c.208-.292-.64-.338-.469-.025.01.018.457.042.469.025M1.503 1.253a.6.6 0 0 0 .008-.16c-.19-.083-.206.226-.008.16m.272 94.03c.114-.09-.018-.353-.16-.24-.116.091.017.354.16.24m.141-38.188c.01-.003.017-.114-.033-.111-.163.007-.117.161.033.111m-.132 42.55c.032-.644.733-1.035.654-.333-.014.127-.224-.274-.287-.112-.115.296.325.492.09.794-.044.055-.46-.312-.458-.35zm.212-32.708a.6.6 0 0 0 .008-.16c-.19-.083-.205.225-.008.16m.29-16.296c.017-.008.033-.364.017-.375-.31-.186-.343.533-.017.375m.148 26.608c.191.167.214.367-.026.5.012-.166.014-.333.026-.5"/></svg>
